X:179
T:The Galilean Fishers Toil
%%stretchlast false
M:4/4
L:1/4
K:Eb clef=C1
"^I"[E,,G,B,E] "^vii°¹"[F,,F,A,D] "^IV"[A,,E,A,C] "^I¹"[G,,E,B,] | "^vi"[C,E,G,E] "^I¹"[G,,E,B,G] "^V"[B,,D,B,F] "^I"[E,,E,G,E] | "^I¹"[G,,E,B,E] "^ii¹"[A,,C,CF] "^I¹"[G,,E,B,G] "^♯iii"[F,,F,A,A] | "^V"[B,,D,B,F] "^I"[E,,E,B,G]3 | [E,,E,B,G] "^V"[B,,D,B,F] "^vi"[C,E,G,E]/ "^♭v°¹"[C,E,=A,E]/ "^V"[B,,F,B,D] | "^I"[E,,G,B,E] "^v"[F,,F,B,C] "^V/V"[F,,C,=A,C] "^V"[B,,D,B,] | "^iii"[G,,D,B,] "^vi"[C,G,E] "^V"[B,,D,B,F] "^I¹"[G,,E,B,G] | "^V"[B,,D,B,F] "^I"[E,,E,G,E]3 | "^V"[B,,D,B,] "^I¹"[G,,E,B,E] "^V"[B,,D,B,F] "^I"[E,B,G] | "^vi"[C,E,E] "^IV"[A,,E,CA] [A,,E,CA] "^I"[E,,E,B,G] | "^I¹"[G,,E,B,E] "^IV"[A,,E,C] "^vii°¹"[F,A,D] "^I"[E,G,E] | "^V"[B,,D,B,F] "^I"[E,G,E]3 | [E,,G,B,E] [E,B,EG] "^IV¹"[C,E,EA] "^V"[B,,F,DB] | "^I¹"[G,,E,EB] "^IV"[A,,E,Ec] [A,,A,Ec] "^I"[E,G,EB] | [E,B,G] "^V¹"[D,F,B,F] "^I"[E,B,G] "^IV"[A,,E,CA] | "^V"[B,,D,B,F] "^I"[E,,E,G,E]3 |]
